X: 4136
T: Blue Bonnets Over The Border
R: jig
M: 6/8
K: Dmajor
|:B,3 B,>CD|d2c B>GF|B<GG G>gg|g>fd d>cd|
B,3 B,>CD|d2c B>GF|G3 D2F|1 G<BD C3:|2 C3- C2D||
|:B>df f>dB|g>fd c>dc|B>df g>ab|B>cd c3|
B>df f>dB|g>fd d>cd|B>AG F<DF|G<BD C2B,:|
|:C3 C>DE|e2d c>AG|c<AA A>aa|a>ge e>de|
C3 C>DE|e2d c>AG|A3 E2G|1 A<cE D3:|2 D3- D2E||
|:c>eg g>ec|a>ge d>ed|c>eg a>bc'|c>de d3|
c>eg g>ec|a>ge e>de|c>BA G<EG|A<cE D2C:|
|:D3 D>EF|f2e d>BA|d<BB B>bb|b>af f>ef|
D3 D>EF|f2e d>BA|B3 F2A|1 B<dF E3:|2 E3- E2F||
|:d>fa a>fd|b>af e>fe|d>fa b>c'd'|d>ef e3|
d>fa a>fd|b>af f>ef|d>cB A<FA|B<dF E2D:|

